img/way-icon-1.svg

<svg width="86" height="86" viewBox="0 0 86 86" fill="none" xmlns="http://www.w3.org/2000/svg">
<path d="M70.36 11.148C63.01 4.829 53.455 1 43 1C19.804 1 1 19.804 1 43C1 53.455 4.828 63.009 11.148 70.36" stroke="#70CF29" stroke-miterlimit="10"/>
<path d="M15.373 74.621C22.759 81.078 32.418 85 43 85C66.196 85 85 66.196 85 43C85 32.419 81.078 22.759 74.621 15.374" stroke="#3FA9F5" stroke-miterlimit="10"/>
<path d="M51.944 40.1651C56.856 40.1651 60.851 36.1691 60.851 31.2581C60.851 26.3471 56.855 22.3501 51.944 22.3501C47.031 22.3501 43.035 26.3461 43.035 31.2581C43.035 36.1701 47.032 40.1651 51.944 40.1651ZM51.944 24.3501C55.753 24.3501 58.851 27.4491 58.851 31.2581C58.851 35.0671 55.752 38.1651 51.944 38.1651C48.134 38.1651 45.035 35.0661 45.035 31.2581C45.035 27.4491 48.135 24.3501 51.944 24.3501Z" fill="#3FA9F5"/>
<path d="M52.001 43.7661C43.6 43.7661 37 50.6001 37 59.0001V60.0001H67V59.0001C67 50.6001 60.401 43.7661 52.001 43.7661ZM38.747 58.0001C39.26 51.1671 44.983 45.7661 51.945 45.7661C58.905 45.7661 64.629 51.1681 65.141 58.0001H38.747Z" fill="#3FA9F5"/>
<path d="M30.303 44.1031C34.316 44.1031 37.581 40.8381 37.581 36.8241C37.581 32.8111 34.316 29.5461 30.303 29.5461C26.289 29.5461 23.023 32.8111 23.023 36.8241C23.022 40.8381 26.289 44.1031 30.303 44.1031ZM30.303 31.5461C33.214 31.5461 35.581 33.9141 35.581 36.8241C35.581 39.7351 33.213 42.1031 30.303 42.1031C27.391 42.1031 25.023 39.7351 25.023 36.8241C25.022 33.9141 27.391 31.5461 30.303 31.5461Z" fill="#3FA9F5"/>
<path d="M18 59.0001V60.0001H33V58.0001H20.044C20.521 52.6081 24.829 48.5181 30.242 48.5181C32.287 48.5181 33.977 48.9291 35.409 49.7731L36.426 48.0501C34.678 47.0191 32.655 46.5181 30.243 46.5181C23.377 46.5181 18 52.0011 18 59.0001Z" fill="#3FA9F5"/>
</svg>

<svg width="86" height="86" fill="none" xmlns="http://www.w3.org/2000/svg"><path d="M70.36 11.148C63.01 4.829 53.455 1 43 1 19.804 1 1 19.804 1 43c0 10.455 3.828 20.009 10.148 27.36" stroke="#70CF29" stroke-miterlimit="10"/><path d="M15.373 74.621C22.759 81.078 32.418 85 43 85c23.196 0 42-18.804 42-42 0-10.581-3.922-20.241-10.379-27.626" stroke="#3FA9F5" stroke-miterlimit="10"/><path d="M51.944 40.165c4.912 0 8.907-3.996 8.907-8.907 0-4.91-3.996-8.908-8.907-8.908-4.913 0-8.909 3.996-8.909 8.908 0 4.912 3.997 8.907 8.909 8.907zm0-15.815a6.915 6.915 0 016.907 6.908 6.915 6.915 0 01-6.907 6.907c-3.81 0-6.909-3.099-6.909-6.907 0-3.809 3.1-6.908 6.909-6.908zM52.001 43.766C43.6 43.766 37 50.6 37 59v1h30v-1c0-8.4-6.599-15.234-14.999-15.234zM38.747 58c.513-6.833 6.236-12.234 13.198-12.234 6.96 0 12.684 5.402 13.196 12.234H38.747zM30.303 44.103c4.013 0 7.278-3.265 7.278-7.279 0-4.013-3.265-7.278-7.278-7.278-4.014 0-7.28 3.265-7.28 7.278-.001 4.014 3.266 7.28 7.28 7.28zm0-12.557a5.284 5.284 0 015.278 5.278 5.285 5.285 0 01-5.278 5.28 5.285 5.285 0 01-5.28-5.28 5.284 5.284 0 015.28-5.278zM18 59v1h15v-2H20.044c.477-5.392 4.785-9.482 10.198-9.482 2.045 0 3.735.411 5.167 1.255l1.017-1.723c-1.748-1.03-3.771-1.532-6.183-1.532C23.377 46.518 18 52.001 18 59z" fill="#3FA9F5"/></svg>
